X: 1
T: Paddy Fahy's
M: 4/4
L: 1/8
R: reel
K: Gmaj
B2dB c2Bc|dGG=F DEFG|BcdB c2Bc|dGG=F DGGA| 
(3Bcd (3Bcd c2Bc|dGG=F DEFG|BcdB cedc|BGA=F DGG2:|
|:dg~g2 dgbg|(3gab ag fdcA|cf=~f2 cfaf|c=fag fedc| 
dg~g2 dg~g2|bgag fdef|gbag fdeg|fdcA G4:|
